UI/Tools/SVG/cursor-pointer_outline_24px.svg

<svg width="24" height="24" viewBox="0 0 24 24" fill="none" xmlns="http://www.w3.org/2000/svg">
<path d="M10 2C9.20435 2 8.44129 2.31607 7.87868 2.87868C7.31607 3.44129 7 4.20435 7 5V10C5.93913 10 4.92172 10.4214 4.17157 11.1716C3.42143 11.9217 3 12.9391 3 14V15.9C3.00443 16.6048 3.19782 17.2954 3.56 17.9L6 22H20L20.94 14.55C21.0621 13.5794 20.8242 12.5977 20.2714 11.7906C19.7186 10.9835 18.8891 10.4069 17.94 10.17L13 9V5C13 4.20435 12.6839 3.44129 12.1213 2.87868C11.5587 2.31607 10.7956 2 10 2ZM7 14H9V5C9 4.73478 9.10536 4.48043 9.29289 4.29289C9.48043 4.10536 9.73478 4 10 4C10.2652 4 10.5196 4.10536 10.7071 4.29289C10.8946 4.48043 11 4.73478 11 5V10.61L12.54 10.98L17.44 12.14C17.9181 12.2453 18.341 12.5224 18.6285 12.9186C18.916 13.3149 19.0482 13.8028 19 14.29L18.24 20H7.14L5.31 16.92C5.12753 16.6183 5.03073 16.2726 5.03 15.92V14C5.03 13.4696 5.24071 12.9609 5.61579 12.5858C5.99086 12.2107 6.49957 12 7.03 12V14H7ZM17 13H15V18H17V13ZM13 13H11V18H13V13Z" fill="#0F1621"/>
</svg>

<svg xmlns="http://www.w3.org/2000/svg" width="24" height="24" viewBox="0 0 24 24"><rect width="24" height="24" style="fill:none"/><path d="M10,2A3,3,0,0,0,7,5v5a4,4,0,0,0-4,4v1.9a3.94,3.94,0,0,0,.56,2L6,22H20l.94-7.45a4,4,0,0,0-3-4.38L13,9V5a3,3,0,0,0-3-3ZM7,14H9V5a1,1,0,0,1,1-1,1,1,0,0,1,1,1v5.61l1.54.37,4.9,1.16A2,2,0,0,1,19,14.29L18.24,20H7.14L5.31,16.92a1.94,1.94,0,0,1-.28-1V14a2,2,0,0,1,2-2v2Zm10-1H15v5h2V13Zm-4,0H11v5h2V13Z"/></svg>
